X:32
T:Jigs simple chords 8
M:3/4
L:1/8
K:A
c/d/[e2A,2C2E2]> e2c | A[eA,CE] cA Bc | d2<[e2A,2C2E2] ec | A[BD,F,A,] cd cB | A2<[e2A,2C2E2] ec |
A[eA,CE] cA Bc | d[eA,CE]<ae fe | d[cE,G,B,D] dB A2 | c/d/[e2A,2C2E2]> e2c |
A[eA,CE] cA Bc | d2<[e2A,2C2E2] ec | A[BD,F,A,] cd cB | A2<[e2A,2C2E2] ec |
A[eA,CE] cA Bc | d[eA,CE]<ae fe | d[cE,G,B,D] dB A2 | c/d/[e2A,2C2E2]> e2c |
A[eA,CE] cA Bc | d2<[e2A,2C2E2] ec | A[BD,F,A,] cd cB | A2<[e2A,2C2E2] ec |
A[eA,CE] cA Bc | d[eA,CE]<ae fe | d[cE,G,B,D] dB A2 | c/d/[e2A,2C2E2]> e2c |
A[eA,CE] cA Bc | d2<[e2A,2C2E2] ec | A[BD,F,A,] cd cB | A2<[e2A,2C2E2] ec |
A[eA,CE] cA Bc | d[eA,CE]<ae fe | d[cE,G,B,D] dB A2 | e[AA,CE] ce Ac |
e[AD,F,A,] df Ad | f[AA,CE] ce Ac | e[BB,DF] cd c2 | B[AA,CE] ce Ac |
e[AD,F,A,] df Ad | f[eA,CE]<ae fe | d[cE,G,B,D] dB A2 | e[AA,CE] ce Ac |
e[AD,F,A,] df Ad | f[AA,CE] ce Ac | e[BB,DF] cd c2 | B[AA,CE] ce Ac |
e[AD,F,A,] df Ad | f[eA,CE]<ae fe | d[cE,G,B,D] dB A2 | e[AA,CE] ce Ac |
e[AD,F,A,] df Ad | f[AA,CE] ce Ac | e[BB,DF] cd c2 | B[AA,CE] ce Ac |
e[AD,F,A,] df Ad | f[eA,CE]<ae fe | d[cE,G,B,D] dB A2 | e[AA,CE] ce Ac |
e[AD,F,A,] df Ad | f[AA,CE] ce Ac | e[BB,DF] cd c2 | B[AA,CE] ce Ac |
e[AD,F,A,] df Ad | f[eA,CE]<ae fe | d[cE,G,B,D] dB A2 | e[aA,CE] ee ed |
c[aA,CE] ee ed | c[aA,CE] ee ed | c[BD,F,A,] cd cB | A[aA,CE] ee ed |
c[aA,CE] ee ed | c[aA,CE] ee fe | d[cE,G,B,D] dB A2 | e[aA,CE] ee ed |
c[aA,CE] ee ed | c[aA,CE] ee ed | c[BD,F,A,] cd cB | A[aA,CE] ee ed |
c[aA,CE] ee ed | c[aA,CE] ee fe | d[cE,G,B,D] dB A2 | e[aA,CE] ee ed |
c[aA,CE] ee ed | c[aA,CE] ee ed | c[BD,F,A,] cd cB | A[aA,CE] ee ed |
c[aA,CE] ee ed | c[aA,CE] ee fe | d[cE,G,B,D] dB A2 | e[aA,CE] ee ed |
c[aA,CE] ee ed | c[aA,CE] ee ed | c[BD,F,A,] cd cB | A[aA,CE] ee ed |
c[aA,CE] ee ed | c[aA,CE] ee fe | d[cE,G,B,D] dB A2 | A/B/[cA,CE] Ac cA |
c[dD,F,A,] Bd dB | d[cA,CE] Ac cA | c[B=G,B,D] GB BG | B[cA,CE] Ac cA |
c[dE,G,B,D] Bd dB | d[eA,CE]<ae fe | d[cE,G,B,D] dB A2 | A/B/[cA,CE] Ac cA |
c[dD,F,A,] Bd dB | d[cA,CE] Ac cA | c[B=G,B,D] GB BG | B[cA,CE] Ac cA |
c[dE,G,B,D] Bd dB | d[eA,CE]<ae fe | d[cE,G,B,D] dB A2 | A/B/[cA,CE] Ac cA |
c[dD,F,A,] Bd dB | d[cA,CE] Ac cA | c[B=G,B,D] GB BG | B[cA,CE] Ac cA |
c[dE,G,B,D] Bd dB | d[eA,CE]<ae fe | d[cE,G,B,D] dB A2 | A/B/[cA,CE] Ac cA |
c[dD,F,A,] Bd dB | d[cA,CE] Ac cA | c[B=G,B,D] GB BG | B[cA,CE] Ac cA |
c[dE,G,B,D] Bd dB | d[eA,CE]<ae fe | d[cE,G,B,D] dB A2 |


